X: 10162
T: Dinkey's
R: reel
M: 4/4
K: Amixolydian
|:eg|aAAA aAbA|aAAA agef|gBBB gBaB|gBBB gfeg|
aAAA gAAA|fAAA e2ef|gfgd efed|cdBc A2:|

